ui/StatusQ/src/assets/img/icons/homepage/shell.svg

<svg fill="none" height="20" viewBox="0 0 20 20" width="20" xmlns="http://www.w3.org/2000/svg"><g stroke="#09101c" stroke-width="1.2"><path d="m17 10c0 3-6 7-7 7s-7-4-7-7c0-3.86599 3.13401-7 7-7 3.866 0 7 3.13401 7 7z"/><path d="m10 3v14"/><path d="m14 4c0 1.95535 0 2.93302-.1152 3.88779-.1994 1.65282-.6555 3.26441-1.352 4.77651-.4022.8735-.9146 1.7062-1.9394 3.3715l-.5934.9642"/><path d="m6 4c0 1.95535 0 2.93302.11519 3.88779.19941 1.65282.65555 3.26441 1.35197 4.77651.40229.8735.91468 1.7062 1.93947 3.3715l.59337.9642"/></g></svg>

<svg width="20" height="20" viewBox="0 0 20 20" fill="none" xmlns="http://www.w3.org/2000/svg">
<g id="20/shell">
<path id="body" d="M17 10C17 13 11 17 10 17C9 17 3 13 3 10C3 6.13401 6.13401 3 10 3C13.866 3 17 6.13401 17 10Z" stroke="#09101C" stroke-width="1.2"/>
<path id="body_2" d="M10 3V17" stroke="#09101C" stroke-width="1.2"/>
<path id="body_3" d="M14 4V4C14 5.95535 14 6.93302 13.8848 7.88779C13.6854 9.54061 13.2293 11.1522 12.5328 12.6643C12.1306 13.5378 11.6182 14.3705 10.5934 16.0358L10 17" stroke="#09101C" stroke-width="1.2"/>
<path id="body_4" d="M6 4V4C6 5.95535 6 6.93302 6.11519 7.88779C6.3146 9.54061 6.77074 11.1522 7.46716 12.6643C7.86945 13.5378 8.38184 14.3705 9.40663 16.0358L10 17" stroke="#09101C" stroke-width="1.2"/>
</g>
</svg>
